X:2428
T:Toast Song 
C:J Kelly, Baldrine 
C:Traditional
O:Isle of Man
Z:Kiaull Vannin 428 
L:1/4
M:2/4 
Q:50 
K:G 
B G|B/c/ d|A F|G/A/ B|B G|B/c/ d|A F|G/A/ B| 
z z/ D/|G A|B>G|B d|g>d|e/e/ c/c/|B A|G2| 
B G|B/c/ d|A F|A/B/ c|B G|B/c/ d|A F|A/B/ c| 
B B|c2|A A|d2|g d|e/d/ c/B/|B A|G2|| 

